contributed-vectors/glimpse.svg

<svg xmlns="http://www.w3.org/2000/svg" xml:space="preserve" style="fill-rule:evenodd;clip-rule:evenodd;stroke-linejoin:round;stroke-miterlimit:2" viewBox="0 0 192 192"><path d="M164.5 21.5c0-5.519-4.481-10-10-10h-133c-5.519 0-10 4.481-10 10v133c0 5.519 4.481 10 10 10h133c5.519 0 10-4.481 10-10v-133Z" style="fill:#fff" transform="translate(8 8)"/><circle cx="96" cy="96" r="53.333" style="fill:#9abeff"/><path d="M142.97 63.825a4.129 4.129 0 0 0-4.129-4.128H50.516a4.128 4.128 0 0 0-4.128 4.128v12.301a4.129 4.129 0 0 0 4.128 4.129h88.325a4.13 4.13 0 0 0 4.129-4.129V63.825Z" style="fill:#fff" transform="matrix(.72668 0 0 .72668 27.199 62.625)"/><circle cx="60.736" cy="69.976" r="5.765" style="fill:#f8c18c" transform="matrix(.72668 0 0 .72668 26.351 62.625)"/><path d="M124.982 70.803c0-.223-.213-.403-.475-.403H78.415c-.262 0-.475.18-.475.403v.807c0 .222.213.403.475.403h46.092c.262 0 .475-.181.475-.403v-.807Z" style="fill:#d2d2d2" transform="matrix(.8722 0 0 1.02703 12.269 38.763)"/><path d="M106.343 74.473a.485.485 0 0 0-.485-.485H78.425a.485.485 0 0 0-.485.485v.969c0 .267.217.484.485.484h27.433a.485.485 0 0 0 .485-.484v-.969Z" style="fill:#d2d2d2" transform="translate(12.269 49.663) scale(.8722)"/><path d="M142.97 63.825a4.129 4.129 0 0 0-4.129-4.128H50.516a4.128 4.128 0 0 0-4.128 4.128v12.301a4.129 4.129 0 0 0 4.128 4.129h88.325a4.13 4.13 0 0 0 4.129-4.129V63.825Z" style="fill:#fff" transform="matrix(.72668 0 0 .72668 27.199 45.15)"/><circle cx="60.736" cy="69.976" r="5.765" style="fill:#98dc9a" transform="matrix(.72668 0 0 .72668 26.351 45.15)"/><path d="M124.982 70.803c0-.223-.213-.403-.475-.403H78.415c-.262 0-.475.18-.475.403v.807c0 .222.213.403.475.403h46.092c.262 0 .475-.181.475-.403v-.807Z" style="fill:#d2d2d2" transform="matrix(.8722 0 0 1.02703 12.269 21.288)"/><path d="M106.343 74.473a.485.485 0 0 0-.485-.485H78.425a.485.485 0 0 0-.485.485v.969c0 .267.217.484.485.484h27.433a.485.485 0 0 0 .485-.484v-.969Z" style="fill:#d2d2d2" transform="translate(12.269 32.187) scale(.8722)"/><path d="M142.97 63.825a4.129 4.129 0 0 0-4.129-4.128H50.516a4.128 4.128 0 0 0-4.128 4.128v12.301a4.129 4.129 0 0 0 4.128 4.129h88.325a4.13 4.13 0 0 0 4.129-4.129V63.825Z" style="fill:#fff" transform="matrix(.72668 0 0 .72668 27.199 27.674)"/><circle cx="60.736" cy="69.976" r="5.765" style="fill:#ff837d" transform="matrix(.72668 0 0 .72668 26.351 27.674)"/><path d="M124.982 70.803c0-.223-.213-.403-.475-.403H78.415c-.262 0-.475.18-.475.403v.807c0 .222.213.403.475.403h46.092c.262 0 .475-.181.475-.403v-.807Z" style="fill:#b1b5bd" transform="matrix(.8722 0 0 1.02703 12.269 3.812)"/><path d="M106.343 74.473a.485.485 0 0 0-.485-.485H78.425a.485.485 0 0 0-.485.485v.969c0 .267.217.484.485.484h27.433a.485.485 0 0 0 .485-.484v-.969Z" style="fill:#b1b5bd" transform="translate(12.269 14.712) scale(.8722)"/></svg>

<?xml version="1.0" encoding="UTF-8" standalone="no"?>
<!DOCTYPE svg PUBLIC "-//W3C//DTD SVG 1.1//EN" "http://www.w3.org/Graphics/SVG/1.1/DTD/svg11.dtd">
<svg width="100%" height="100%" viewBox="0 0 192 192" version="1.1" xmlns="http://www.w3.org/2000/svg" xmlns:xlink="http://www.w3.org/1999/xlink" xml:space="preserve" xmlns:serif="http://www.serif.com/" style="fill-rule:evenodd;clip-rule:evenodd;stroke-linejoin:round;stroke-miterlimit:2;">
    <g id="Layer1">
        <g transform="matrix(1,0,0,1,8,8)">
            <path d="M164.5,21.5C164.5,15.981 160.019,11.5 154.5,11.5L21.5,11.5C15.981,11.5 11.5,15.981 11.5,21.5L11.5,154.5C11.5,160.019 15.981,164.5 21.5,164.5L154.5,164.5C160.019,164.5 164.5,160.019 164.5,154.5L164.5,21.5Z" style="fill:white;"/>
        </g>
        <circle cx="96" cy="96" r="53.333" style="fill:rgb(154,190,255);"/>
        <g transform="matrix(0.726683,0,0,0.726683,26.2384,27.6742)">
            <g>
                <g>
                    <g transform="matrix(1,0,0,1,1.32121,48.097)">
                        <path d="M142.97,63.825C142.97,61.545 141.121,59.697 138.841,59.697C123.019,59.697 66.339,59.697 50.516,59.697C48.236,59.697 46.388,61.545 46.388,63.825C46.388,67.402 46.388,72.55 46.388,76.126C46.388,78.406 48.236,80.255 50.516,80.255C66.339,80.255 123.019,80.255 138.841,80.255C141.121,80.255 142.97,78.406 142.97,76.126C142.97,72.55 142.97,67.402 142.97,63.825Z" style="fill:white;"/>
                    </g>
                    <g transform="matrix(1,0,0,1,0.155151,48.097)">
                        <circle cx="60.736" cy="69.976" r="5.765" style="fill:rgb(248,193,140);"/>
                    </g>
                    <g transform="matrix(1,0,0,1,-3.55271e-15,49.0873)">
                        <g transform="matrix(1.20025,0,0,1.41331,-19.224,-33.8274)">
                            <path d="M124.982,70.803C124.982,70.58 124.769,70.4 124.507,70.4L78.415,70.4C78.153,70.4 77.94,70.58 77.94,70.803L77.94,71.61C77.94,71.832 78.153,72.013 78.415,72.013L124.507,72.013C124.769,72.013 124.982,71.832 124.982,71.61L124.982,70.803Z" style="fill:rgb(210,210,210);"/>
                        </g>
                        <g transform="matrix(1.20025,0,0,1.20025,-19.224,-18.8283)">
                            <path d="M106.343,74.473C106.343,74.205 106.126,73.988 105.858,73.988L78.425,73.988C78.157,73.988 77.94,74.205 77.94,74.473L77.94,75.442C77.94,75.709 78.157,75.926 78.425,75.926L105.858,75.926C106.126,75.926 106.343,75.709 106.343,75.442L106.343,74.473Z" style="fill:rgb(210,210,210);"/>
                        </g>
                    </g>
                </g>
                <g>
                    <g transform="matrix(1,0,0,1,1.32121,24.0485)">
                        <path d="M142.97,63.825C142.97,61.545 141.121,59.697 138.841,59.697C123.019,59.697 66.339,59.697 50.516,59.697C48.236,59.697 46.388,61.545 46.388,63.825C46.388,67.402 46.388,72.55 46.388,76.126C46.388,78.406 48.236,80.255 50.516,80.255C66.339,80.255 123.019,80.255 138.841,80.255C141.121,80.255 142.97,78.406 142.97,76.126C142.97,72.55 142.97,67.402 142.97,63.825Z" style="fill:white;"/>
                    </g>
                    <g transform="matrix(1,0,0,1,0.155151,24.0485)">
                        <circle cx="60.736" cy="69.976" r="5.765" style="fill:rgb(152,220,154);"/>
                    </g>
                    <g transform="matrix(1,0,0,1,-3.55271e-15,25.0388)">
                        <g transform="matrix(1.20025,0,0,1.41331,-19.224,-33.8274)">
                            <path d="M124.982,70.803C124.982,70.58 124.769,70.4 124.507,70.4L78.415,70.4C78.153,70.4 77.94,70.58 77.94,70.803L77.94,71.61C77.94,71.832 78.153,72.013 78.415,72.013L124.507,72.013C124.769,72.013 124.982,71.832 124.982,71.61L124.982,70.803Z" style="fill:rgb(210,210,210);"/>
                        </g>
                        <g transform="matrix(1.20025,0,0,1.20025,-19.224,-18.8283)">
                            <path d="M106.343,74.473C106.343,74.205 106.126,73.988 105.858,73.988L78.425,73.988C78.157,73.988 77.94,74.205 77.94,74.473L77.94,75.442C77.94,75.709 78.157,75.926 78.425,75.926L105.858,75.926C106.126,75.926 106.343,75.709 106.343,75.442L106.343,74.473Z" style="fill:rgb(210,210,210);"/>
                        </g>
                    </g>
                </g>
                <g>
                    <g transform="matrix(1,0,0,1,1.32121,0)">
                        <path d="M142.97,63.825C142.97,61.545 141.121,59.697 138.841,59.697C123.019,59.697 66.339,59.697 50.516,59.697C48.236,59.697 46.388,61.545 46.388,63.825C46.388,67.402 46.388,72.55 46.388,76.126C46.388,78.406 48.236,80.255 50.516,80.255C66.339,80.255 123.019,80.255 138.841,80.255C141.121,80.255 142.97,78.406 142.97,76.126C142.97,72.55 142.97,67.402 142.97,63.825Z" style="fill:white;"/>
                    </g>
                    <g transform="matrix(1,0,0,1,0.155151,0)">
                        <circle cx="60.736" cy="69.976" r="5.765" style="fill:rgb(255,131,125);"/>
                    </g>
                    <g transform="matrix(1,0,0,1,-3.55271e-15,0.990289)">
                        <g transform="matrix(1.20025,0,0,1.41331,-19.224,-33.8274)">
                            <path d="M124.982,70.803C124.982,70.58 124.769,70.4 124.507,70.4L78.415,70.4C78.153,70.4 77.94,70.58 77.94,70.803L77.94,71.61C77.94,71.832 78.153,72.013 78.415,72.013L124.507,72.013C124.769,72.013 124.982,71.832 124.982,71.61L124.982,70.803Z" style="fill:rgb(177,181,189);"/>
                        </g>
                        <g transform="matrix(1.20025,0,0,1.20025,-19.224,-18.8283)">
                            <path d="M106.343,74.473C106.343,74.205 106.126,73.988 105.858,73.988L78.425,73.988C78.157,73.988 77.94,74.205 77.94,74.473L77.94,75.442C77.94,75.709 78.157,75.926 78.425,75.926L105.858,75.926C106.126,75.926 106.343,75.709 106.343,75.442L106.343,74.473Z" style="fill:rgb(177,181,189);"/>
                        </g>
                    </g>
                </g>
            </g>
        </g>
    </g>
</svg>
